!!!!SEGMENT: pl-sa--575-a-ix-55--007_anonim--arietto.krn
!!!cenid: 18xx:621
!!!COM: Anonim
!!!COM-rismid: pe30004985
!!!CDT:
!!!CNT:
!!!OTL: Arietto
!!!PDT:
!!!AGN: Secular
!!!SMS-siglum: PL-SA
!!!SMS-shelfmark: 575/A IX 55
!!!SMS-shelfwork: 007 W
!!!SMS-variant:
!!!SMS-altvar:
!!!NIFC-rismid: 1001109835
!!!system-decoration: {(s1,s2)}
**kern	**kern
*part1	*part1
*staff2	*staff1
*	*I"Piano
*clefF4	*clefG2
*k[f#]	*k[f#]
*M2/4	*M2/4
*>[A,A,B,B]	*>[A,A,B,B]
=1	=1
*>A	*>A
!LO:TX:a:t=P:mixed beam:problem	!
8GG/L	8.ddL 8.b 8.g/
8G\J	.
.	16ddJk 16b/
8GG/	16eeLL 16cc\
.	16dd 16b\
8r	16cc 16a\
.	16bJJ 16g\
=2	=2
!LO:TX:a:t=P:mixed beam:problem	!
8GG/L	8.ggL 8.ee\
8G\J	.
.	16ff#Jk 16dd\
8GG/	8ff#L 8dd\
8r	16eeL 16cc\
.	16ddJJ 16b\
=3	=3
!LO:TX:a:t=P:mixed beam:problem	!
8GG/L	8.ddL 8.b 8.g\
8G\J	.
.	16ddJk 16b\
4GG/	16eeLL 16cc\
.	16dd 16b\
.	16cc 16a\
.	16bJJ 16g\
=4	=4
4C/	16eeLL 16cc\
.	16dd 16b\
.	16cc 16a\
.	16bJJ 16g\
8D/L	8bL 8g/
8DD/J	8aJ 8f#/
=5:|!|:	=5:|!|:
*>B	*>B
8F#\L	8aL 8f# 8d/
8D\	16a/L
.	16cc/JJ
8G\	8bL 8g 8d/
8B\J	16b/L
.	16dd/JJ
=6	=6
8D\L	16ddLL 16b\
.	16cc 16a\
8F#\	16b 16g\
.	16ccJJ 16a\
8G\	8bL 8g\
8B\J	8ddJ 8b\
=7	=7
8F#\L	8aL 8f# 8d/
8D\	16a/L
.	16cc/JJ
8G\	8bL 8g 8d/
8B\J	16b/L
.	16dd/JJ
=8	=8
.	8qdd/
!LO:TX:a:t=P:mixed beam:problem	!
8A\L	8cc#X\L
8AA/J	16cc#\L
.	16ee\JJ
4D\	8dd\L
.	16cc#X\L
.	16ccn\JJ
=9	=9
!LO:TX:a:t=P:mixed beam:problem	!
8GG/L	8.ddL 8.b 8.g/
8G\J	.
.	16dd/Jk
4GG/	16eeLL 16cc\
.	16dd 16b\
.	16cc 16a\
.	16bJJ 16g\
=10	=10
.	8qb/
!LO:TX:a:t=P:mixed beam:problem	!
8GG/L	8.gg\L
8G\J	.
.	16ff#\Jk
4GG/	16ff#\LL
.	16ee\J
.	8dd\J
=11	=11
4BB/	16dd\LL
.	16ee\
.	16ff#\
.	16gg\JJ
4C/	32ee\LLL
.	32ff#\
.	32gg\
.	32ff#\JJJ
.	32gg\LLL
.	32ee\
.	32dd\
.	32cc\JJJ
=12	=12
8D/L	8bL 8g/
8DD/J	8aJ 8d/
4GG/	4g 4B/
==:|!	==:|!
*-	*-
!!title: @{OTL};
!!!RDF**kern: > = above
!!!RDF**kern: < = below
!!!EED: Wojciech Jakubiak-Danek
!!!EST: 2020-12-10
!!!URL-scan: http://bc.bdsandomierz.pl/dlibra/publication/1381/edition/1349/content
!!!ONB-nifc: Str. 3, s. 6
!!!ENC: Marcin Jachim
!!!END: 2020-06-19
